icons/glyphs/glyph-ribbon.svg

<?xml version="1.0" encoding="UTF-8" standalone="no"?><svg height="16" viewBox="0 0 4.2333332 4.2333332" width="16" xmlns="http://www.w3.org/2000/svg"><sodipodi:namedview/><path d="m2.1166667-.00000004a.85346772.85346772 0 0 0 -.8534679.85346772v2.73109652l.8534679.648769.8534676-.648769v-2.73109652a.85346772.85346772 0 0 0 -.8534676-.85346772zm-.004.32738489.1726932.36539083.3980627.0646769-.2933797.27671022.0613432.3993962-.3540559-.1940305-.3607235.1820286.0753452-.3967291-.2847115-.28671181.4007298-.05134144z" fill="#d0d0d0" stroke-linecap="square" stroke-width=".4191"/></svg>

<?xml version="1.0" encoding="UTF-8" standalone="no"?>
<svg height="16" viewBox="0 0 4.2333332 4.2333332" width="16" xmlns="http://www.w3.org/2000/svg">
	<sodipodi:namedview/>
	<path d="M 2.1166667 -.00000004 A .85346772 .85346772 0 0 0 1.2631988 .85346768 V 3.5845642 l .8534679 .648769 l .8534676 -.648769 V .85346768 A .85346772 .85346772 0 0 0 2.1166667 -.00000004 Z M 2.1126667 .32738485 L 2.2853599 .69277568 L 2.6834226 .75745258 L 2.3900429 1.0341628 L 2.4513861 1.433559 L 2.0973302 1.2395285 L 1.7366067 1.4215571 L 1.8119519 1.024828 L 1.5272404 .73811619 L 1.9279702 .68677475 Z" fill="#d0d0d0" stroke-linecap="square" stroke-width=".4191"/>
</svg>
